X:07
T:Mrs Garden (of Troops) Strathspey. 2voices. Dix.07
M:C
L:1/8
Q:1/4=110
S:Anon. MS dated 1811, from Dixon collection, Holton le Moor, Lincs.
R:strathspey
C:(Robert Petrie 1767-1830)
N:Repeat marks added at start
O:England;Lincolnshire;Holton le Moor
Z:vmp.R.Greig 2010 <http://www.village-music-project.org.uk>
K:F
[V:1]|:C|F>GFd cFdF|ECC>F E/F/G/E/ CE|F>GFd cFAf|c>f a/g/f/e/ f2f:|
[V:2]|:z|F,2F,,2A,,2B,,2|C,2A,,2C,2B,,2|A,,2F,,2A,,2F,,2|A,,2C,2F,,2F,,:|
[V:1]|:c|f>ca>c b>ca>c|A>f b/a/g/f/ egga|f>ca>c b>ca>c|b/a/g/f/ e/f/g/f/ f2f c//d//e/|
[V:2]|:z|A,2F,2E,2F,2|A,2F,2E,2C,2|A,2F,2E,2F,2|C2C2F,2F,2|
[V:1]f>ca>c b>ca>c|[cA]>f b/a/g/f/ eggf/e/|dBdf cAcf|[cA]f a/g/f/e/”tr”f2fa”$”:|
[V:2]A,2F,2E,2F,2|F,2C,2E,2C,2|B,,2B,2A,2G,2|F,2C,2F,,2F,,2:|

